src/pos-icons/kettle-off.svg

<svg height="24" viewBox="0 0 24 24" width="24" xmlns="http://www.w3.org/2000/svg"><path d="m22.1 21.5-19.7-19.8-1.3 1.3 3.6 3.6c-.4.7-.7 1.5-.7 2.4 0 1.2.5 2.3 1.4 3.3-.9 1.2-1.4 2.7-1.4 4.2v3.5c0 1.1.9 2 2 2h13c.3 0 .6-.1.9-.2l.9.9zm-13.9-11.4-.6.3c-.4-.4-.6-.9-.6-1.4v-.1zm-.2 7.4v2.5h-2v-2.5c0-2.6 1.5-4.8 3.7-5.9l.8.8c-1.5 1.2-2.5 3-2.5 5.1m8.9-7.4 2.1-2.1 3 3-2 2c.7 1.1 1 2.3 1 3.5v1.3l-8.8-8.8h.3c1.5 0 3.1.4 4.4 1.1m-7.4-3.8-2.1-2.1c1.4-.7 3.2-1.2 5.1-1.2 2.2 0 4.3.6 5.8 1.7l-2 2c-1-.6-2.4-.9-3.8-.9-1.1 0-2.1.1-3 .5z"/></svg>

<?xml version="1.0" encoding="UTF-8"?><!DOCTYPE svg PUBLIC "-//W3C//DTD SVG 1.1//EN" "http://www.w3.org/Graphics/SVG/1.1/DTD/svg11.dtd"><svg xmlns="http://www.w3.org/2000/svg" xmlns:xlink="http://www.w3.org/1999/xlink" version="1.1" id="mdi-kettle-off" width="24" height="24" viewBox="0 0 24 24"><path d="M22.1 21.5L2.4 1.7L1.1 3L4.7 6.6C4.3 7.3 4 8.1 4 9C4 10.2 4.5 11.3 5.4 12.3C4.5 13.5 4 15 4 16.5V20C4 21.1 4.9 22 6 22H19C19.3 22 19.6 21.9 19.9 21.8L20.8 22.7L22.1 21.5M8.2 10.1L7.6 10.4C7.2 10 7 9.5 7 9V8.9L8.2 10.1M8 17.5V20H6V17.5C6 14.9 7.5 12.7 9.7 11.6L10.5 12.4C9 13.6 8 15.4 8 17.5M16.9 10.1L19 8L22 11L20 13C20.7 14.1 21 15.3 21 16.5V17.8L12.2 9H12.5C14 9 15.6 9.4 16.9 10.1M9.5 6.3L7.4 4.2C8.8 3.5 10.6 3 12.5 3C14.7 3 16.8 3.6 18.3 4.7L16.3 6.7C15.3 6.1 13.9 5.8 12.5 5.8C11.4 5.8 10.4 5.9 9.5 6.3Z" /></svg>
